chains/wardenprotocol/logo.svg

<svg width="208" height="208" viewBox="0 0 208 208" fill="none" xmlns="http://www.w3.org/2000/svg">
<circle cx="104" cy="104" r="104" fill="#140901"/>
<path d="M79.0035 101.234L101.936 115.307C103.461 116.249 105.464 116.249 106.989 115.307L129.922 101.234L145.056 90.9685C146.833 89.7615 147.39 87.5465 146.369 85.7427L140.374 75.2115C139.22 73.1822 136.487 72.3996 134.272 73.4474L106.552 86.6181C105.239 87.2415 103.687 87.2415 102.374 86.6181L74.6531 73.4607C72.4381 72.4129 69.7058 73.1954 68.5519 75.2248L62.5436 85.7427C61.5223 87.5465 62.0793 89.7483 63.8567 90.9685L78.9903 101.234H79.0035Z" fill="#CAFF94"/>
<path d="M108.382 153.294L135.28 127.695C137.283 126.024 137.747 123.292 136.381 121.143L132.787 115.493C131.474 113.424 128.503 112.8 126.328 114.153L107.016 126.143C105.477 127.098 103.461 127.098 101.923 126.143L82.6112 114.153C80.436 112.8 77.4649 113.424 76.1519 115.493L72.5575 121.143C71.1913 123.292 71.6423 126.011 73.6583 127.695L100.557 153.294C102.772 155.151 106.167 155.151 108.382 153.294Z" fill="#CAFF94"/>
<path d="M86.7362 60.7808L102.387 53.3798C103.687 52.7564 105.252 52.7564 106.552 53.3798L122.203 60.7808C125.466 62.3194 125.466 66.5769 122.203 68.1155L106.552 75.5165C105.252 76.1399 103.687 76.1399 102.387 75.5165L86.7362 68.1155C83.4734 66.5769 83.4734 62.3194 86.7362 60.7808Z" fill="#CAFF94"/>
</svg>

<svg xmlns="http://www.w3.org/2000/svg" width="208" height="208" fill="none" viewBox="0 0 208 208"><circle cx="104" cy="104" r="104" fill="#140901"/><path fill="#CAFF94" d="m79.004 101.234 22.932 14.073a4.87 4.87 0 0 0 5.053 0l22.933-14.073 15.134-10.265c1.777-1.207 2.334-3.422 1.313-5.226l-5.995-10.531c-1.154-2.03-3.887-2.812-6.102-1.765l-27.72 13.171a4.9 4.9 0 0 1-4.178 0l-27.72-13.157c-2.216-1.048-4.948-.266-6.102 1.764l-6.008 10.518c-1.022 1.803-.465 4.005 1.313 5.226l15.133 10.265z"/><path fill="#CAFF94" d="m108.382 153.294 26.898-25.599c2.003-1.671 2.467-4.403 1.101-6.552l-3.594-5.65c-1.313-2.069-4.284-2.693-6.459-1.34l-19.312 11.99a4.89 4.89 0 0 1-5.093 0l-19.312-11.99c-2.175-1.353-5.146-.729-6.46 1.34l-3.593 5.65c-1.367 2.149-.916 4.868 1.1 6.552l26.899 25.599c2.215 1.857 5.61 1.857 7.825 0M86.736 60.78l15.651-7.4a4.87 4.87 0 0 1 4.165 0l15.651 7.4c3.263 1.54 3.263 5.797 0 7.335l-15.651 7.401a4.87 4.87 0 0 1-4.165 0l-15.65-7.4c-3.264-1.54-3.264-5.797 0-7.335"/></svg>
